brandFactory_export/2.Regular/Añadir alarma_2Regular.svg

<?xml version="1.0" encoding="UTF-8"?>
<svg width="24px" height="24px" viewBox="0 0 24 24" version="1.1" xmlns="http://www.w3.org/2000/svg" xmlns:xlink="http://www.w3.org/1999/xlink">
    <title>2.Regular/Añadir alarma_2Regular</title>
    <g id="Symbols" stroke="none" stroke-width="1" fill="none" fill-rule="evenodd">
        <g id="2.Regular/Añadir-alarma_2Regular" fill="#5CB615" fill-rule="nonzero">
            <path d="M4.59831933,18.692437 L21.2436975,18.692437 C19.4991597,16.1815126 19.6840336,12.8134454 19.6941176,12.6487395 L19.6941176,8.13445378 C19.6941176,5.92268908 19.0722689,4.22521008 17.8521008,3.09579832 C15.892437,1.28067227 12.9983193,1.45546218 12.9680672,1.45546218 C12.9478992,1.45546218 12.9411765,1.44537815 12.9176471,1.44537815 C12.9008403,1.44537815 12.8806723,1.45546218 12.8705882,1.45546218 C12.6857143,1.44537815 8.65210084,1.22352941 6.92773109,4.48403361 C8.3394958,4.53445378 13.1260504,5.14285714 13.1260504,11.0016807 C13.1260504,16.994958 8.11428571,17.4689076 6.8605042,17.4857143 L6.25546218,17.4857143 C6.03361345,17.4857143 5.70084034,17.4655462 5.31092437,17.4084034 C5.1092437,17.8823529 4.86386555,18.3058824 4.59831933,18.692437 Z M14.5983193,21.5663866 C14.9781513,21.1428571 15.1058824,20.5613445 15.1361345,20.1378151 L10.6991597,20.1378151 C10.7394958,20.5613445 10.8571429,21.1529412 11.2470588,21.5764706 C11.6067227,21.9831933 12.1512605,22.1747899 12.9243697,22.1747899 C13.6840336,22.1747899 14.2285714,21.9831933 14.5983193,21.5663866 L14.5983193,21.5663866 Z M1.46218487,10.9613445 C1.46218487,15.3243697 4.48403361,16.0201681 6.28571429,16.0369748 L6.83361345,16.0369748 C8.64537815,16.010084 11.6672269,15.3042017 11.6672269,10.9983193 C11.6672269,6.68571429 8.61848739,5.9697479 6.80336134,5.92268908 L6.22857143,5.92268908 C4.44369748,5.93277311 1.46218487,6.60840336 1.46218487,10.9613445 Z M23.3613445,18.8571429 C23.5966387,19.0487395 23.6840336,19.3781513 23.5865546,19.6705882 C23.4789916,19.9596639 23.2033613,20.1478992 22.8941176,20.1445378 L16.605042,20.1445378 C16.5579832,20.8 16.3731092,21.7747899 15.6907563,22.5378151 C15.0386555,23.2605042 14.1008403,23.6268908 12.9243697,23.6268908 C11.7344538,23.6268908 10.8,23.2605042 10.1478992,22.5378151 C9.46554622,21.7747899 9.28067227,20.8 9.24033613,20.1445378 L2.95462185,20.1445378 C2.64537815,20.1512605 2.3697479,19.9596639 2.26218487,19.6705882 C2.15462185,19.3815126 2.24201681,19.0521008 2.48403361,18.8605042 C3.03865546,18.4168067 3.49915966,17.7983193 3.85882353,17.0655462 C2.04705882,16.4134454 0,14.8403361 0,10.9613445 C0,5.92268908 3.41176471,4.78319328 5.30084034,4.54453782 C7.14285714,-0.117647059 12.4168067,-0.0235294118 12.9243697,0.00672268908 C13.3714286,-0.0134453782 16.5411765,-0.100840336 18.8403361,2.02352941 C20.3798319,3.44201681 21.1596639,5.49915966 21.1596639,8.13445378 L21.1596639,12.6991597 C21.1596639,12.7731092 20.9344538,16.8941176 23.3613445,18.8571429 Z M7.2907563,14.2151261 C7.28739496,14.6151261 6.96134454,14.9411765 6.55798319,14.9378409 C6.15798319,14.9378409 5.83193277,14.6151261 5.82857143,14.2151261 L5.82857143,11.687395 L3.2907563,11.687395 C2.88739496,11.687395 2.56134454,11.3647059 2.56134454,10.9613445 C2.56134454,10.5613445 2.88739496,10.2386555 3.2907563,10.2386555 L5.83193277,10.2386555 L5.83193277,7.74789916 C5.83529412,7.34789916 6.16134454,7.02184874 6.56134454,7.02518433 C6.96470588,7.02518433 7.29411765,7.34789916 7.29411765,7.74789916 L7.29411765,10.2386555 L9.83865546,10.2386555 C10.2420168,10.2386555 10.5680672,10.5647059 10.5680672,10.9647059 C10.5647059,11.3647059 10.2386555,11.6907563 9.83865546,11.6907563 L7.29411765,11.6907563 L7.29411765,14.2151261 L7.2907563,14.2151261 Z" id="Añadir-alarma_2Regular"></path>
        </g>
    </g>
</svg>

<svg width="24" height="24" viewBox="0 0 24 24" xmlns="http://www.w3.org/2000/svg"><path d="M4.598 18.692h16.646c-1.745-2.51-1.56-5.879-1.55-6.043V8.134c0-2.211-.622-3.909-1.842-5.038-1.96-1.815-4.854-1.64-4.884-1.64-.02 0-.027-.01-.05-.01-.017 0-.037.01-.047.01-.185-.01-4.219-.232-5.943 3.028 1.411.05 6.198.659 6.198 6.518 0 5.993-5.012 6.467-6.265 6.484h-.606c-.221 0-.554-.02-.944-.078a7.331 7.331 0 01-.713 1.284zm10 2.874c.38-.423.508-1.005.538-1.428H10.7c.04.423.158 1.015.548 1.438.36.407.904.599 1.677.599.76 0 1.305-.192 1.674-.609zM1.462 10.961c0 4.363 3.022 5.06 4.824 5.076h.548c1.811-.027 4.833-.733 4.833-5.039 0-4.312-3.049-5.028-4.864-5.075H6.23c-1.785.01-4.767.685-4.767 5.038zm21.9 7.896a.748.748 0 01.225.814.727.727 0 01-.693.474h-6.289c-.047.655-.232 1.63-.914 2.393-.652.723-1.59 1.089-2.767 1.089-1.19 0-2.124-.366-2.776-1.09-.682-.762-.867-1.737-.908-2.392H2.955a.723.723 0 01-.693-.474.716.716 0 01.222-.81c.555-.444 1.015-1.063 1.375-1.795C2.047 16.413 0 14.84 0 10.96c0-5.038 3.412-6.178 5.3-6.416C7.144-.118 12.418-.024 12.925.007c.447-.02 3.617-.108 5.916 2.017 1.54 1.418 2.32 3.475 2.32 6.11V12.7c0 .074-.226 4.195 2.201 6.158zM7.29 14.215a.728.728 0 01-.733.723.73.73 0 01-.73-.723v-2.528H3.292a.725.725 0 110-1.449h2.54v-2.49c.004-.4.33-.726.73-.723.404 0 .733.323.733.723v2.49H9.84c.403 0 .73.327.73.727a.732.732 0 01-.73.726H7.294v2.524h-.003z" fill="#5CB615" fill-rule="nonzero"/></svg>
